X:168
M:4/4
L:1/4
K:Ab
E2 F E | A3/2 B/ c2 | c2 B A | B3 z | E2 F E | A3/2 B/ c2 | B2 A G | A3 z | d2 d d | d3/2 c/ c2 | B2 B B | B3/2 A/ A2 | F2 F F | A3 z | !sintro!B2 A G | A3 z !eintro!|]
